X:22
T:Fribble Hall
M:C|
L:1/8
B:Thompson's Compleat Collection of 200 Favourite Country Dances, vol. 1 (London, 1757)
Z:Transcribed and edited by Fynnian Titford-Mock, 2007
Z:abc's:AK/Fiddler's Companion
K:A
e2|agfe fedc|d2 (c2 c2) e2|fedc dcBA| G2 (E2 E2)e2|agfe fbg^d|
eg (B2 B2) a2|gbge B2 ^d2|e6::e2|edcB A=GFE|FA (d2 d2)f2|
fedc BA^GF|GB (e2 e2)d2|c2 ec B2 dB|c2 ec B2dB|cABc E2G2|A6:|

